src/lib/packages/icons/src/assets/filled/location-arrow.svg

<svg width="24" height="24" viewBox="0 0 24 24" fill="none" xmlns="http://www.w3.org/2000/svg">
<path d="M20.894 4.534L13.436 20.3831C13.014 21.2801 11.705 21.174 11.433 20.221L10.343 16.4051C9.96305 15.0761 8.92504 14.038 7.59604 13.658L3.78006 12.5682C2.82706 12.2962 2.72101 10.987 3.61801 10.565L19.467 3.107C20.376 2.678 21.322 3.624 20.894 4.534Z" fill="currentColor"/>
</svg>

<svg xmlns="http://www.w3.org/2000/svg" width="24" height="24" fill="none"><path fill="currentColor" d="m20.894 4.534-7.458 15.85c-.422.896-1.731.79-2.003-.163l-1.09-3.816a4 4 0 0 0-2.747-2.747l-3.816-1.09c-.953-.272-1.059-1.581-.162-2.003l15.849-7.458c.909-.429 1.855.517 1.427 1.427Z"/></svg>
